src/svg/moon.svg

<svg height="1000" width="857.143" xmlns="http://www.w3.org/2000/svg"><path d="M704.196 727.138q-30.132 5.022 -61.38 5.022 -101.556 0 -188.046 -50.22t-136.71 -136.71 -50.22 -188.046q0 -107.136 58.032 -199.206 -112.158 33.48 -183.303 127.782t-71.145 214.272q0 72.54 28.458 138.663t76.167 113.832 113.832 76.167 138.663 28.458q80.352 0 152.613 -34.317t123.039 -95.697zm113.274 -47.43q-52.452 113.274 -158.193 181.071t-230.733 67.797q-87.048 0 -166.284 -34.038t-136.71 -91.512 -91.512 -136.71 -34.038 -166.284q0 -85.374 32.085 -163.215t87.048 -134.757 131.409 -91.791 161.82 -38.223q24.552 -1.116 34.038 21.762 10.044 22.878 -8.37 40.176 -47.988 43.524 -73.377 101.277t-25.389 121.923q0 82.584 40.734 152.334t110.484 110.484 152.334 40.734q65.844 0 127.224 -28.458 22.878 -10.044 40.176 7.254 7.812 7.812 9.765 18.972t-2.511 21.204z"/></svg>

<svg height="1000" width="857.1" xmlns="http://www.w3.org/2000/svg"><path d="M704.2 727.1q-30.1 5 -61.3 5 -101.6 0 -188.1 -50.2T318.1 545.2 267.9 357.1q0 -107.1 58 -199.2Q213.7 191.4 142.6 285.7T71.4 500q0 72.5 28.5 138.7t76.2 113.8 113.8 76.2 138.7 28.4q80.3 0 152.6 -34.3t123 -95.7zm113.3 -47.4Q765.1 793 659.3 860.8t-230.7 67.8q-87.1 0 -166.3 -34.1T125.6 803 34 666.3 0 500Q0 414.6 32.1 336.8t87 -134.8 131.5 -91.8T412.4 72q24.5 -1.1 34 21.7 10.1 22.9 -8.3 40.2 -48 43.6 -73.4 101.3t-25.4 121.9q0 82.6 40.7 152.4T490.5 620t152.4 40.7q65.8 0 127.2 -28.4 22.9 -10.1 40.2 7.2 7.8 7.8 9.7 19t-2.5 21.2z"/></svg>
